svg/300/outlined/filter_list_off-fill.svg

<svg xmlns="http://www.w3.org/2000/svg" width="48" height="48" viewBox="0 -960 960 960"><path d="M808.384-86.771 86.771-808.384l32.615-32.23 721.228 721.228-32.23 32.615ZM595.385-457.308l-45.384-45.384H703.46v45.384H595.385ZM398.078-654.615l-45.384-45.384h467.305v45.384H398.078Zm13.077 394.614v-45.384h137.306v45.384H411.155Zm-155-197.307v-45.384h181.308v45.384H256.155ZM140.001-654.615v-45.384h100.155v45.384H140.001Z"/></svg>

<svg xmlns="http://www.w3.org/2000/svg" width="48" height="48" viewBox="0 -960 960 960"><path d="M808.38-86.77 86.77-808.38l32.62-32.23 721.22 721.22-32.23 32.62Zm-213-370.54L550-502.69h153.46v45.38H595.38Zm-197.3-197.3L352.69-700H820v45.39H398.08ZM411.15-260v-45.39h137.31V-260H411.15ZM256.16-457.31v-45.38h181.3v45.38h-181.3ZM140-654.61V-700h100.16v45.39H140Z"/></svg>
